assets/shop-tab/Asset/BigBasket.svg

<svg width="93" height="52" viewBox="0 0 93 52" fill="none" xmlns="http://www.w3.org/2000/svg">
<g clip-path="url(#clip0_634_1206)">
<path fill-rule="evenodd" clip-rule="evenodd" d="M0 8C0 3.58172 3.58172 0 8 0H85C89.4183 0 93 3.58172 93 8V21.1C90.7178 21.5633 89 23.581 89 26C89 28.419 90.7178 30.4367 93 30.9V44C93 48.4183 89.4183 52 85 52H8C3.58172 52 0 48.4183 0 44V30.9C2.28224 30.4367 4 28.419 4 26C4 23.581 2.28224 21.5633 0 21.1V8Z" fill="#A5CD39"/>
<path fill-rule="evenodd" clip-rule="evenodd" d="M16.9442 18.5194C17.0683 18.5012 17.1938 18.4985 17.319 18.5006C20.8064 18.5006 24.2937 18.5008 27.7811 18.5003C28.5069 18.5089 29.212 18.8975 29.617 19.5005C29.7817 19.7437 29.8998 20.0197 29.9564 20.3086C30.0001 20.5232 30.0001 20.7433 29.9997 20.9613C29.9997 24.2428 29.9997 27.5241 29.9997 30.8056C29.9972 31.1124 30.0147 31.4237 29.9464 31.7256C29.8227 32.2969 29.464 32.8103 28.9761 33.1283C28.586 33.3864 28.1147 33.5188 27.6478 33.4979C24.1526 33.4979 20.6574 33.4976 17.1622 33.4979C16.3938 33.4812 15.6591 33.0238 15.2884 32.3507C15.1531 32.1106 15.0641 31.8447 15.0247 31.5719C14.9924 31.3482 15.0016 31.1219 15.0005 30.8969C15.0005 27.6376 15.0005 24.3786 15.0005 21.1193C15.002 20.8347 14.987 20.5461 15.0513 20.2665C15.1578 19.7595 15.4521 19.2971 15.859 18.9791C16.1715 18.733 16.5499 18.5709 16.9442 18.5194Z" fill="#A5CD39"/>
<path fill-rule="evenodd" clip-rule="evenodd" d="M17.0484 20.3775C17.6845 20.3766 18.3206 20.3771 18.9565 20.3771C18.9582 21.9322 18.9539 23.4873 18.9586 25.0425C19.0172 24.9822 19.0564 24.9058 19.1111 24.8422C19.4953 24.368 20.0633 24.0787 20.6481 23.9881C21.1627 23.9099 21.7033 23.942 22.1871 24.1517C22.7651 24.4037 23.2334 24.8838 23.5432 25.4439C23.7711 25.8581 23.9104 26.3184 24.0072 26.7826C24.1858 27.6535 24.1203 28.5701 23.8503 29.4132C23.7223 29.8375 23.5221 30.2396 23.2496 30.5835C23.0217 30.8645 22.7625 31.1268 22.4494 31.3034C22.0486 31.5352 21.5843 31.6255 21.129 31.6213C20.692 31.617 20.2442 31.5855 19.8345 31.4145C19.6717 31.3421 19.5156 31.2535 19.3686 31.1515C19.235 31.0544 19.1026 30.9467 19.0144 30.8016C18.953 30.7024 18.8856 30.6049 18.8512 30.4912C18.8721 30.7247 18.8235 30.9726 18.6773 31.1565C18.5033 31.3776 18.2367 31.4913 17.9746 31.5509C17.6724 31.6192 17.3602 31.6262 17.0525 31.6026C17.0432 30.446 17.0512 29.2889 17.0486 28.132C17.0486 25.5471 17.0488 22.9623 17.0484 20.3775ZM20.2741 25.4684C19.9048 25.525 19.5861 25.7651 19.3504 26.0564C19.1022 26.3638 18.982 26.7558 18.902 27.1422C18.8149 27.5629 18.8105 28.0024 18.8992 28.4236C18.9865 28.8468 19.1292 29.2738 19.4153 29.5986C19.6425 29.8834 19.9774 30.0684 20.3305 30.11C20.6786 30.1527 21.0555 30.1032 21.3459 29.8859C21.5785 29.7164 21.7299 29.4568 21.8516 29.1961C22.0574 28.7382 22.129 28.2269 22.1214 27.725C22.1156 27.3458 22.0622 26.9667 21.9541 26.6043C21.8414 26.2802 21.6671 25.9716 21.4146 25.7442C21.0998 25.4774 20.6678 25.4005 20.2741 25.4684Z" fill="#EC1C24"/>
<path fill-rule="evenodd" clip-rule="evenodd" d="M21.4165 20.3773C21.802 20.3768 22.1877 20.3768 22.5733 20.3773C22.5733 21.5804 22.5728 22.7836 22.5735 23.9867C22.2299 23.7582 21.8277 23.6109 21.4165 23.6186C21.4165 22.5382 21.4167 21.4577 21.4165 20.3773ZM23.0139 24.3336C23.4245 24.0856 23.8973 23.9449 24.373 23.9447C25.0777 23.9326 25.7736 24.229 26.2902 24.7226C26.6108 25.0247 26.8647 25.4012 27.0372 25.8134C27.3604 26.6198 27.4926 27.5117 27.3905 28.3806C27.3395 28.8205 27.2322 29.2523 27.0811 29.666C26.9425 30.0389 26.7388 30.3853 26.4837 30.6842C26.2649 30.9393 26.0154 31.1726 25.7205 31.3286C25.3285 31.5442 24.8798 31.6255 24.4394 31.621C23.904 31.6183 23.3445 31.563 22.8744 31.2729C23.141 31.0434 23.3812 30.7804 23.5812 30.4864C23.9568 30.6256 24.3769 30.646 24.76 30.5269C25.0673 30.4327 25.336 30.2282 25.5352 29.9695C25.76 29.678 25.9045 29.3282 25.9992 28.97C26.1302 28.4651 26.1659 27.9367 26.1295 27.4162C26.0932 26.9377 25.9955 26.4587 25.794 26.0244C25.6359 25.6878 25.4018 25.3796 25.0867 25.1897C24.6504 24.9251 24.1032 24.9074 23.6299 25.0679C23.4537 24.7986 23.2461 24.552 23.0139 24.3336Z" fill="#231F20"/>
<path fill-rule="evenodd" clip-rule="evenodd" d="M32 20.5018C32.543 20.4983 33.0866 20.5011 33.6303 20.5004C33.6303 21.8387 33.6296 23.1769 33.6303 24.5145C33.9441 23.9985 34.5059 23.7394 35.0522 23.6228C35.7706 23.4839 36.5817 23.6757 37.0891 24.2611C37.5709 24.7571 37.831 25.4455 37.9492 26.1376C38.1125 27.1201 37.9768 28.1671 37.5145 29.0409C37.1805 29.6549 36.6086 30.1466 35.9379 30.2511C35.3372 30.3348 34.6867 30.3033 34.1524 29.967C33.8964 29.8382 33.6874 29.622 33.555 29.3565C33.5362 29.6041 33.4536 29.8603 33.2526 30.0078C32.8911 30.2776 32.4281 30.2783 32.0041 30.2683C31.9953 27.0128 32.0041 23.7573 32 20.5018ZM34.6168 24.961C34.0604 25.1328 33.7217 25.7075 33.6162 26.2864C33.4502 27.0114 33.5698 27.8229 33.9764 28.4362C34.3809 29.0316 35.2915 29.1654 35.7914 28.6366C36.317 28.0276 36.4103 27.1259 36.278 26.3408C36.2249 25.8771 36.0098 25.4298 35.6624 25.1407C35.3714 24.8952 34.9656 24.8515 34.6168 24.961ZM38.4351 20.5004C38.9781 20.4997 39.521 20.5011 40.064 20.5004C40.0654 20.9828 40.0647 21.4658 40.0647 21.9496C39.5217 21.9503 38.9787 21.9489 38.4364 21.9503C38.4337 21.4665 38.4358 20.9835 38.4351 20.5004ZM42.6398 23.6185C43.4569 23.456 44.4488 23.7688 44.8224 24.6189C44.8802 24.3499 45.0442 24.1173 45.2747 23.9899C45.6147 23.7867 46.0166 23.7616 46.3983 23.7745C46.3983 25.6824 46.3976 27.5903 46.3989 29.4982C46.4144 30.0063 46.3351 30.5202 46.1543 30.9918C45.7827 31.8513 44.9098 32.3551 44.0537 32.4581C43.2076 32.5619 42.2749 32.4975 41.5639 31.9479C41.0928 31.623 40.777 31.0612 40.7374 30.4644C41.277 30.4679 41.8172 30.4622 42.3576 30.4679C42.4288 30.7134 42.5551 30.9531 42.7688 31.0884C43.1391 31.3145 43.5934 31.3417 44.0033 31.2451C44.4804 31.132 44.7573 30.6132 44.8231 30.1316C44.854 29.7308 44.8238 29.3279 44.8399 28.9271C44.5913 29.4217 44.1195 29.7702 43.6021 29.8639C42.9556 29.9813 42.248 29.9119 41.6896 29.519C41.0384 29.0617 40.6728 28.2437 40.5989 27.4336C40.5378 26.7043 40.5331 25.9379 40.8126 25.2544C41.1251 24.4415 41.7978 23.7387 42.6398 23.6185ZM43.1498 24.956C42.8273 25.0412 42.5531 25.2881 42.41 25.6058C42.16 26.0696 42.1869 26.6271 42.2084 27.1423C42.2628 27.7456 42.5827 28.4398 43.1935 28.5607C43.7432 28.7039 44.3561 28.4083 44.6195 27.8773C44.9273 27.1266 44.9165 26.2063 44.5382 25.487C44.2707 24.9846 43.6498 24.8086 43.1498 24.956ZM38.4351 23.7752C38.9781 23.7745 39.5217 23.7731 40.0654 23.7752C40.0647 25.9457 40.0647 28.1156 40.0654 30.2854C39.5217 30.2876 38.9781 30.2869 38.4351 30.2861C38.4351 28.1156 38.4351 25.9457 38.4351 23.7752Z" fill="#EC1C24"/>
<path fill-rule="evenodd" clip-rule="evenodd" d="M47.1709 20.5007C47.5183 20.5007 47.8651 20.5007 48.2125 20.5007C48.2112 21.8619 48.2152 23.223 48.2105 24.5842C48.4504 24.1798 48.8072 23.8521 49.2373 23.7011C50.0558 23.4163 51.0282 23.6331 51.6337 24.2986C52.1941 24.9141 52.4165 25.7893 52.4434 26.6274C52.4542 27.5176 52.305 28.4437 51.852 29.2065C51.2694 30.2435 49.9227 30.6414 48.9033 30.1469C48.5747 29.9787 48.3308 29.6717 48.148 29.3439C48.1587 29.5758 48.1312 29.837 47.9558 30.0009C47.7475 30.2185 47.4343 30.1533 47.1709 30.1612C47.1709 26.9415 47.1709 23.7211 47.1709 20.5007ZM49.4019 24.6028C49.0444 24.6722 48.7367 24.9241 48.5485 25.2504C48.2656 25.7299 48.1897 26.3075 48.1561 26.8628C48.1178 27.4546 48.1587 28.0887 48.4564 28.6075C48.7373 29.1149 49.2924 29.427 49.8448 29.3955C50.3394 29.3991 50.7963 29.0777 51.0403 28.6297C51.344 28.073 51.4126 27.4103 51.4038 26.7784C51.3823 26.1929 51.3144 25.5589 50.9495 25.0923C50.5826 24.6192 49.9456 24.4869 49.4019 24.6028ZM64.0542 20.5014C64.3788 20.4993 64.704 20.5007 65.0286 20.5007C65.0306 22.541 65.0279 24.5813 65.03 26.6216C65.7389 25.8795 66.4526 25.1431 67.1649 24.4053C67.394 24.1448 67.7099 23.9358 68.056 23.9501C68.2811 23.938 68.4692 24.0882 68.6386 24.2271C67.9794 24.942 67.2926 25.6269 66.6192 26.3268C67.4223 27.6751 68.2428 29.0119 69.0492 30.358C68.6117 30.3587 68.1742 30.358 67.7374 30.3587C67.1165 29.2817 66.4936 28.2061 65.872 27.1297C65.5864 27.3924 65.3068 27.6622 65.0279 27.9334C65.0313 28.7414 65.0286 29.55 65.0293 30.3587C64.704 30.3587 64.3795 30.3587 64.0549 30.3587C64.0542 27.0732 64.0556 23.7877 64.0542 20.5014ZM75.0091 20.5007C75.3445 20.5007 75.6798 20.5007 76.0158 20.5C76.0171 21.6178 76.0158 22.7357 76.0171 23.8528C76.2974 23.8871 76.6024 23.9544 76.8013 24.1863C76.9445 24.3358 76.9815 24.5541 77.0003 24.7581C76.6723 24.7588 76.3444 24.7581 76.0165 24.7588C76.0158 26.1257 76.0171 27.4933 76.0158 28.8609C76.0131 29.0305 76.0534 29.2352 76.2113 29.3182C76.4519 29.4477 76.7308 29.3754 76.9895 29.3912C76.9915 29.6796 76.9915 29.968 76.9895 30.2571C76.5023 30.3065 75.9782 30.4618 75.5185 30.202C75.1449 30.0131 75.0226 29.5436 75.0105 29.1378C75.0058 27.6786 75.0098 26.2187 75.0085 24.7588C74.7336 24.7581 74.4594 24.7588 74.1853 24.7588C74.1853 24.4604 74.1853 24.162 74.1853 23.8642C74.4594 23.8642 74.7336 23.8635 75.0078 23.8642C75.0091 22.7428 75.0078 21.6214 75.0091 20.5007ZM53.6261 24.1569C54.1752 23.661 54.9325 23.5708 55.6253 23.5823C56.2221 23.613 56.8564 23.7569 57.3067 24.202C57.5728 24.4825 57.7294 24.8776 57.722 25.2776C57.7199 26.4721 57.7226 27.6665 57.7206 28.8609C57.724 29.0412 57.7152 29.2788 57.8973 29.3697C58.0573 29.4205 58.2286 29.3761 58.3933 29.3726C58.3933 29.6359 58.3933 29.9 58.3933 30.1633C57.9914 30.3222 57.513 30.358 57.1346 30.1154C56.8739 29.9508 56.804 29.613 56.7724 29.3167C56.4021 29.7597 55.9277 30.1233 55.3787 30.2593C54.6818 30.4403 53.8748 30.3902 53.3016 29.8878C52.4293 29.1185 52.5382 27.4246 53.53 26.8199C54.1382 26.4341 54.868 26.4599 55.546 26.3475C55.8538 26.2896 56.1797 26.306 56.4741 26.1837C56.7597 26.0047 56.7785 25.5954 56.7267 25.2855C56.6575 24.8554 56.2637 24.5928 55.8854 24.5262C55.419 24.4418 54.8922 24.416 54.4782 24.698C54.1846 24.8919 54.1019 25.2941 53.8082 25.4852C53.5811 25.6491 53.2975 25.697 53.0287 25.6584C53.061 25.1073 53.2149 24.5248 53.6261 24.1569ZM55.4123 27.2507C54.96 27.328 54.4581 27.3365 54.0804 27.6486C53.698 27.9635 53.7229 28.5839 53.9353 28.9983C54.2202 29.4635 54.8129 29.4799 55.2745 29.389C55.8726 29.2609 56.505 28.8745 56.6851 28.2154C56.7489 27.7889 56.6951 27.3523 56.7146 26.9222C56.3074 27.1297 55.8511 27.1691 55.4123 27.2507ZM59.2319 24.1841C59.6936 23.7476 60.3266 23.5923 60.9301 23.5787C61.4596 23.5808 62.0134 23.6739 62.4602 23.9952C62.9105 24.3108 63.2041 24.8525 63.2545 25.4222C62.9508 25.4816 62.6289 25.4301 62.3729 25.2404C62.0913 25.0715 61.9361 24.713 61.6034 24.6357C61.0887 24.4904 60.5007 24.4675 60.0222 24.7502C59.7124 24.9298 59.5646 25.3693 59.7117 25.7135C59.8461 25.9711 60.1311 26.0598 60.3777 26.1443C60.9207 26.3067 61.467 26.4542 62.0134 26.6066C62.4475 26.7411 62.9085 26.9172 63.1994 27.3079C63.4736 27.6822 63.4884 28.1889 63.4225 28.639C63.3224 29.2509 62.9165 29.7762 62.3964 30.0445C61.7587 30.3902 61.0141 30.4024 60.3206 30.2943C59.7998 30.207 59.2642 29.993 58.9235 29.545C58.6036 29.1414 58.5008 28.6018 58.4706 28.0887C58.8059 28.0844 59.1412 28.088 59.4766 28.0858C59.5021 28.4401 59.5948 28.8237 59.8703 29.0527C60.2587 29.3869 60.789 29.4133 61.2668 29.3897C61.633 29.3561 62.0308 29.2344 62.2593 28.906C62.4132 28.6963 62.4448 28.4072 62.3863 28.1553C62.2949 27.8575 61.9959 27.7259 61.7398 27.6357C61.0927 27.4246 60.4241 27.2972 59.7776 27.0854C59.3126 26.9308 58.8637 26.5815 58.7306 26.0606C58.5754 25.4029 58.7474 24.6421 59.2319 24.1841ZM69.4658 24.4869C69.9174 23.9351 70.5961 23.6417 71.2735 23.5937C72.0053 23.515 72.805 23.7275 73.307 24.3309C73.9937 25.1245 74.1362 26.2617 74.1543 27.2993C72.6901 27.3008 71.2258 27.2979 69.7615 27.3008C69.7736 27.8568 69.8677 28.4594 70.2366 28.8816C70.5618 29.2688 71.0719 29.4162 71.5463 29.3948C72.2439 29.4026 72.9172 28.8544 73.061 28.1209C73.397 28.123 73.733 28.1216 74.069 28.1223C73.9521 28.853 73.5455 29.5314 72.9542 29.9272C72.4495 30.3065 71.805 30.3702 71.2056 30.3494C70.5175 30.3222 69.8294 30.0109 69.3811 29.4449C68.8724 28.8115 68.6608 27.9577 68.6729 27.1362C68.6621 26.1987 68.8711 25.2061 69.4658 24.4869ZM70.3623 25.0186C69.8905 25.4651 69.7131 26.1629 69.7642 26.8177C70.0619 26.4671 70.5222 26.4055 70.9415 26.4398C71.6559 26.4406 72.3695 26.442 73.0839 26.4391C73.0422 25.9654 72.9468 25.4687 72.6518 25.0951C72.0873 24.4053 70.9751 24.3902 70.3623 25.0186Z" fill="#231F20"/>
</g>
<defs>
<clipPath id="clip0_634_1206">
<rect width="93" height="52" fill="white"/>
</clipPath>
</defs>
</svg>

<svg xmlns="http://www.w3.org/2000/svg" width="93" height="52" fill="none" viewBox="0 0 93 52"><g fill-rule="evenodd" clip-path="url(#a)" clip-rule="evenodd"><path fill="#a5cd39" d="M0 8a8 8 0 0 1 8-8h77a8 8 0 0 1 8 8v13.1a5.002 5.002 0 0 0 0 9.8V44a8 8 0 0 1-8 8H8a8 8 0 0 1-8-8V30.9a5.002 5.002 0 0 0 0-9.8z"/><path fill="#a5cd39" d="M16.944 18.52c.124-.019.25-.021.375-.02h10.462a2.29 2.29 0 0 1 1.836 1c.165.244.283.52.34.809.043.214.043.434.043.652v9.845c-.003.306.015.618-.054.92a2.27 2.27 0 0 1-2.298 1.772H17.162a2.24 2.24 0 0 1-2.137-1.926c-.033-.224-.023-.45-.024-.675v-9.778c.001-.284-.014-.573.05-.852.107-.508.401-.97.808-1.288.313-.246.69-.408 1.085-.46"/><path fill="#ec1c24" d="M17.048 20.378h1.909c.001 1.554-.003 3.11.002 4.665.058-.06.097-.137.152-.2.384-.475.952-.764 1.537-.855.515-.078 1.055-.046 1.54.164.577.252 1.045.732 1.355 1.292.228.414.367.874.464 1.339.179.87.113 1.787-.157 2.63a3.5 3.5 0 0 1-.6 1.17c-.228.282-.488.544-.8.72-.401.232-.866.322-1.321.318-.437-.004-.885-.035-1.295-.206a3 3 0 0 1-.465-.264 1.3 1.3 0 0 1-.355-.35c-.061-.099-.128-.196-.163-.31.021.234-.027.482-.174.666-.174.22-.44.334-.702.394a3.1 3.1 0 0 1-.923.052c-.009-1.157 0-2.314-.003-3.471zm3.226 5.09c-.37.057-.688.297-.924.588-.248.308-.368.7-.448 1.086-.087.42-.091.86-.003 1.282.087.423.23.85.516 1.175.227.284.562.47.916.511.348.043.724-.007 1.015-.224.232-.17.384-.43.506-.69.205-.458.277-.97.27-1.471a4.2 4.2 0 0 0-.168-1.12c-.113-.325-.287-.633-.54-.86-.314-.268-.746-.344-1.14-.277"/><path fill="#231f20" d="M21.417 20.377h1.156v3.61c-.343-.229-.745-.376-1.157-.368zm1.597 3.957c.41-.248.883-.39 1.359-.39.705-.011 1.4.285 1.917.779.32.302.575.678.747 1.09.323.807.456 1.699.354 2.568-.051.44-.159.871-.31 1.285a3.4 3.4 0 0 1-.597 1.018c-.22.255-.469.489-.764.645-.392.215-.84.296-1.28.292-.536-.003-1.096-.058-1.566-.348a4 4 0 0 0 .707-.787c.376.14.796.16 1.179.04.307-.093.576-.298.775-.556a2.8 2.8 0 0 0 .464-1 4.9 4.9 0 0 0 .13-1.554 4 4 0 0 0-.335-1.392c-.158-.336-.392-.644-.707-.834-.437-.265-.984-.283-1.457-.122a4 4 0 0 0-.616-.734"/><path fill="#ec1c24" d="M32 20.502c.543-.004 1.087 0 1.63-.002v4.015c.314-.517.876-.776 1.422-.892.719-.14 1.53.053 2.037.638.482.496.742 1.185.86 1.877.163.982.028 2.03-.434 2.903-.334.614-.906 1.106-1.577 1.21-.6.084-1.251.052-1.786-.284a1.36 1.36 0 0 1-.597-.61c-.019.247-.101.503-.302.65-.362.27-.825.271-1.249.261-.009-3.255 0-6.51-.004-9.766m2.617 4.459c-.557.172-.895.747-1 1.325-.167.725-.047 1.537.36 2.15.404.596 1.315.73 1.814.2.526-.608.62-1.51.487-2.295-.053-.464-.268-.911-.616-1.2-.29-.246-.696-.29-1.045-.18m3.818-4.46h1.629v1.449h-1.628q-.002-.724 0-1.45m4.205 3.117c.817-.162 1.809.15 2.182 1a.94.94 0 0 1 .453-.628c.34-.203.742-.228 1.123-.215v5.723a3.9 3.9 0 0 1-.244 1.494c-.371.86-1.244 1.363-2.1 1.466-.846.104-1.78.04-2.49-.51a1.98 1.98 0 0 1-.827-1.484c.54.004 1.08-.002 1.62.004.072.245.198.485.412.62.37.226.824.254 1.234.157.477-.113.754-.632.82-1.113.031-.401 0-.804.017-1.205-.249.495-.72.843-1.238.937-.646.117-1.354.048-1.912-.345-.652-.457-1.017-1.275-1.091-2.085-.061-.73-.066-1.496.214-2.18.312-.812.985-1.515 1.827-1.636m.51 1.338a1.16 1.16 0 0 0-.74.65c-.25.464-.223 1.021-.202 1.536.055.604.375 1.298.986 1.419.55.143 1.162-.153 1.425-.684.308-.75.297-1.67-.08-2.39-.268-.502-.89-.678-1.39-.531m-4.715-1.18q.815-.004 1.63 0v6.51q-.815.002-1.63 0z"/><path fill="#231f20" d="M47.17 20.5h1.042c0 1.362.003 2.723-.002 4.084.24-.404.597-.732 1.027-.883.819-.285 1.791-.068 2.397.598.56.615.782 1.49.81 2.328.01.89-.139 1.817-.592 2.58-.583 1.037-1.93 1.434-2.949.94-.328-.168-.572-.475-.755-.803.01.232-.017.493-.192.657-.209.217-.522.152-.785.16zm2.232 4.103c-.358.07-.665.321-.854.647-.282.48-.358 1.058-.392 1.613-.038.592.003 1.226.3 1.745.281.507.836.819 1.389.787.494.004.951-.317 1.195-.765.304-.557.373-1.22.364-1.852-.022-.585-.09-1.22-.455-1.686-.366-.473-1.003-.605-1.547-.49M64.054 20.5q.487-.002.975 0c.002 2.04-.001 4.08.001 6.12q1.065-1.11 2.135-2.216c.229-.26.545-.47.891-.455.225-.012.413.138.583.277-.66.715-1.346 1.4-2.02 2.1.803 1.348 1.624 2.685 2.43 4.031h-1.312q-.931-1.614-1.865-3.228-.427.395-.844.803c.003.808 0 1.617.001 2.426h-.974zm10.955 0 1.007-.001.001 3.353c.28.034.585.101.784.333.144.15.18.368.2.572h-.985v4.103c-.003.17.037.374.195.457.24.13.52.057.779.073q.003.433 0 .866c-.488.05-1.012.205-1.471-.055-.374-.189-.496-.658-.509-1.064-.004-1.46 0-2.92-.002-4.38h-.823v-.894h.823zm-21.383 3.656c.55-.496 1.306-.586 2-.575.596.031 1.23.175 1.68.62.267.28.423.676.416 1.076l-.001 3.583c.003.18-.006.418.176.509.16.05.332.006.496.003v.79c-.402.16-.88.195-1.258-.048-.261-.164-.331-.502-.363-.798-.37.443-.844.806-1.393.942-.697.181-1.504.131-2.077-.371-.873-.77-.764-2.463.228-3.068.608-.386 1.338-.36 2.016-.473.308-.057.634-.041.928-.163.286-.18.305-.589.253-.899-.07-.43-.463-.692-.842-.759-.466-.084-.993-.11-1.407.172-.293.194-.376.596-.67.787-.227.164-.51.212-.78.173.033-.55.187-1.133.598-1.501m1.786 3.094c-.452.077-.954.085-1.332.398-.382.314-.357.935-.145 1.35.285.465.878.48 1.34.39.598-.128 1.23-.514 1.41-1.174.064-.426.01-.863.03-1.293-.408.208-.864.247-1.303.329m3.82-3.067c.462-.436 1.095-.592 1.698-.605.53.002 1.083.095 1.53.416.45.316.744.857.794 1.427-.303.06-.625.008-.881-.182-.282-.168-.437-.527-.77-.604-.514-.146-1.102-.168-1.58.114-.31.18-.458.62-.311.963.134.258.42.347.666.431.543.163 1.089.31 1.635.463.434.134.895.31 1.186.7.275.375.29.882.224 1.332a1.96 1.96 0 0 1-1.027 1.406c-.637.345-1.382.357-2.075.25-.521-.088-1.057-.302-1.398-.75-.32-.404-.422-.943-.452-1.456.335-.005.67-.001 1.006-.003.025.354.118.738.393.967.389.334.919.36 1.397.337.366-.034.764-.156.992-.484.154-.21.186-.499.127-.75-.091-.298-.39-.43-.646-.52-.647-.211-1.316-.339-1.962-.55-.465-.155-.914-.505-1.047-1.025-.156-.658.016-1.419.5-1.877m10.234.303c.451-.552 1.13-.845 1.808-.893.731-.079 1.531.133 2.033.737.687.794.83 1.93.847 2.968-1.464.002-2.928-.001-4.392.002.012.556.106 1.158.475 1.58.325.388.835.535 1.31.514.697.008 1.37-.54 1.514-1.274l1.008.001c-.117.731-.523 1.41-1.115 1.805-.504.38-1.149.443-1.748.422-.689-.027-1.377-.338-1.825-.904-.509-.634-.72-1.487-.708-2.309-.01-.937.198-1.93.793-2.65m.896.532c-.471.446-.649 1.144-.598 1.799.298-.35.758-.413 1.178-.378h2.142c-.042-.475-.137-.971-.432-1.345-.565-.69-1.677-.705-2.29-.076"/></g><defs><clipPath id="a"><path fill="#fff" d="M0 0h93v52H0z"/></clipPath></defs></svg>
